src/lib/packages/icons/src/assets/line/package-heart.svg

<svg width="24" height="24" viewBox="0 0 24 24" fill="none" xmlns="http://www.w3.org/2000/svg">
<path d="M21.413 8.71701L20.343 4.97C19.961 3.633 19.566 2.25 16.738 2.25H7.26294C4.43494 2.25 4.03896 3.633 3.65796 4.97L2.58801 8.71701C2.36401 9.49901 2.25098 10.308 2.25098 11.121V18C2.25098 20.418 3.58298 21.75 6.00098 21.75H18.001C20.419 21.75 21.751 20.418 21.751 18V11.12C21.75 10.307 21.637 9.49901 21.413 8.71701ZM18.901 5.38199L19.9709 9.129C19.9819 9.169 19.9859 9.21101 19.9969 9.25101H12.75V3.75101H16.7371C18.4351 3.75001 18.552 4.16099 18.901 5.38199ZM5.099 5.38199C5.449 4.16099 5.56594 3.75 7.26294 3.75H11.25V9.25H4.00305C4.01405 9.21 4.01705 9.168 4.02905 9.129L5.099 5.38199ZM20.25 18C20.25 19.577 19.577 20.25 18 20.25H6C4.423 20.25 3.75 19.577 3.75 18V11.12C3.75 10.996 3.769 10.873 3.776 10.75H20.224C20.23 10.874 20.25 10.996 20.25 11.12V18ZM13.551 11.5C13.546 11.5 13.542 11.5 13.538 11.5C12.876 11.5 12.369 11.756 12 12.088C11.631 11.755 11.124 11.5 10.462 11.5C10.458 11.5 10.454 11.5 10.449 11.5C9.60897 11.504 8.90401 11.824 8.41101 12.426C7.82901 13.138 7.61596 14.167 7.82996 15.25C8.35496 17.913 11.558 19.374 11.693 19.435C11.791 19.479 11.895 19.5 12 19.5C12.105 19.5 12.209 19.478 12.307 19.435C12.443 19.374 15.6449 17.913 16.1689 15.25C16.3829 14.167 16.172 13.139 15.59 12.427C15.098 11.824 14.393 11.504 13.551 11.5ZM14.698 14.959C14.401 16.463 12.705 17.526 12 17.909C11.295 17.526 9.599 16.463 9.302 14.96C9.177 14.328 9.279 13.736 9.573 13.377C9.779 13.126 10.068 13.002 10.458 13.001C10.459 13.001 10.461 13.001 10.462 13.001C11.041 13.001 11.27 13.577 11.291 13.634C11.393 13.935 11.675 14.135 11.993 14.139C12.272 14.146 12.598 13.942 12.708 13.643C12.732 13.577 12.961 13.001 13.54 13.001C13.541 13.001 13.5429 13.001 13.5439 13.001C13.9349 13.003 14.2251 13.126 14.4301 13.377C14.7221 13.735 14.822 14.327 14.698 14.959Z" fill="currentColor"/>
</svg>

<svg xmlns="http://www.w3.org/2000/svg" width="24" height="24" fill="none"><path fill="currentColor" d="m21.413 8.717-1.07-3.747c-.382-1.337-.777-2.72-3.605-2.72H7.263c-2.828 0-3.224 1.383-3.605 2.72l-1.07 3.747a8.729 8.729 0 0 0-.337 2.404V18c0 2.418 1.332 3.75 3.75 3.75h12c2.418 0 3.75-1.332 3.75-3.75v-6.88a8.76 8.76 0 0 0-.338-2.403Zm-2.512-3.335 1.07 3.747c.01.04.015.082.026.122H12.75v-5.5h3.987c1.698-.001 1.815.41 2.164 1.631Zm-13.802 0c.35-1.221.467-1.632 2.164-1.632h3.987v5.5H4.003c.011-.04.014-.082.026-.121L5.1 5.382ZM20.25 18c0 1.577-.673 2.25-2.25 2.25H6c-1.577 0-2.25-.673-2.25-2.25v-6.88c0-.124.019-.247.026-.37h16.448c.006.124.026.246.026.37V18Zm-6.699-6.5h-.013c-.662 0-1.169.256-1.538.588a2.242 2.242 0 0 0-1.538-.588h-.013c-.84.004-1.545.324-2.038.926-.582.712-.795 1.741-.581 2.824.525 2.663 3.728 4.124 3.863 4.185a.746.746 0 0 0 .614 0c.136-.061 3.338-1.522 3.862-4.185.214-1.083.003-2.111-.579-2.823-.492-.603-1.197-.923-2.039-.927Zm1.147 3.459c-.297 1.504-1.993 2.567-2.698 2.95-.705-.383-2.401-1.446-2.698-2.949-.125-.632-.023-1.224.271-1.583.206-.251.495-.375.885-.376h.004c.579 0 .808.576.829.633a.748.748 0 0 0 .702.505.79.79 0 0 0 .715-.496c.024-.066.253-.642.832-.642h.004c.39.002.681.125.886.376.292.358.392.95.268 1.582Z"/></svg>
